src/assets/images/icons/dribbble.svg

<svg width="24" height="24" viewBox="0 0 24 24" fill="none" xmlns="http://www.w3.org/2000/svg">
<path d="M8.56 2.75C12.93 8.78 14.58 12.17 16.59 20.47M19.13 5.09C15.41 9.44 10.19 10.75 2.25 10.94M21.75 12.84C18.25 11.91 15.12 12.02 12.81 12.84C10.23 13.76 7.8 15.7 5.37 19.16M22 12C22 17.5228 17.5228 22 12 22C6.47715 22 2 17.5228 2 12C2 6.47715 6.47715 2 12 2C17.5228 2 22 6.47715 22 12Z" stroke="#181D27" stroke-width="2" stroke-linecap="round" stroke-linejoin="round"/>
</svg>

<svg xmlns="http://www.w3.org/2000/svg" fill="none" viewBox="0 0 24 24"><path stroke="#181D27" stroke-linecap="round" stroke-linejoin="round" stroke-width="2" d="M8.56 2.75c4.37 6.03 6.02 9.42 8.03 17.72m2.54-15.38c-3.72 4.35-8.94 5.66-16.88 5.85m19.5 1.9c-3.5-.93-6.63-.82-8.94 0-2.58.92-5.01 2.86-7.44 6.32M22 12c0 5.523-4.477 10-10 10S2 17.523 2 12 6.477 2 12 2s10 4.477 10 10"/></svg>
